!!!!SEGMENT: pl-wtm--r-1740-m--002-002_moniuszko-stanislaw--sonety-krymskie-cisza-morska.krn
!!!cenid: 18xx:2919
!!!COM: Moniuszko, Stanisław
!!!COM-rismid: pe30008351
!!!CDT: 1819/05/05-1872/06/04
!!!CNT: Polish
!!!GTL: Sonety krymskie
!!!OTL: Cisza morska
!!!OMV: 002
!!!PDT:
!!!AGN: Secular; Sonnet
!!!SMS-siglum: PL-Wtm
!!!SMS-shelfmark: R 1740/M
!!!SMS-shelfwork: 002-002 G
!!!SMS-variant:
!!!SMS-altvar:
!!!NIFC-rismid: 1001096354
!!!URL-scan: http://repozytorium.nifc.pl/skany/pl-wtm-nut--r1740m
!!!ONB-nifc: UWAGA: w zbiorze 2 aranżacje Sonetów. Pliki nr 001-001-010 w obsadzie vl (2), vla,
!!!AIN: 1 clars 1 cor 1 fagot 1 flt 1 oboe 1 picco 1 timpa
!!!key:
**kern	**dynam	**kern	**dynam	**kern	**dynam	**kern	**dynam	**kern	**dynam	**kern	**dynam
*part6	*part6	*part5	*part5	*part4	*part4	*part3	*part3	*part2	*part2	*part1	*part1
*staff6	*	*staff5	*	*staff4	*	*staff3	*	*staff2	*	*staff1	*
*Itimpa	*	*Icor	*	*Ifagot	*	*Iclars	*	*Ioboe	*	*Iflt&Ipicco	*
*I"Timp.	*	*I"Corni. in F. I.mo e 2do	*	*I"Fag.	*	*I"in B.Clar.	*	*I"Oboi.	*	*I"Flauto e Piccolo.	*
*clefF4	*	*clefG2	*	*clefF4	*	*clefG2	*	*clefG2	*	*clefG2	*
*	*	*	*	*	*	*ITrd1c2	*	*	*	*	*
*	*	*	*	*k[b-e-a-d-g-]	*	*k[b-e-a-d-g-]	*	*k[b-e-a-d-g-]	*	*k[b-e-a-d-g-]	*
*	*	*	*	*D-:	*	*D-:	*	*D-:	*	*D-:	*
*M6/4	*	*M6/4	*	*M6/4	*	*M6/4	*	*M6/4	*	*M6/4	*
=1	=1	=1	=1	=1	=1	=1	=1	=1	=1	=1	=1
*	*	*all\right	*	*all\right	*all\right	*all\right	*	*all\right	*	*all\right	*
!LO:TX:a:t=P:problem=zamiast znaków dźwięki AA- C	!	!	!	!	!	!	!	!	!	!	!
!LO:TX:b:t=7	!	!LO:TX:b:t=7/	!	!LO:TX:b:t=7/	!	!LO:TX:b:t=7/	!	!LO:TX:b:t=/	!	!LO:TX:b:t=/7	!
1.ryy	.	1.ryy	.	1.ryy	.	1.ryy	.	1.ryy	.	1.ryy	.
=2	=2	=2	=2	=2	=2	=2	=2	=2	=2	=2	=2
1.ryy	.	1.ryy	.	1.ryy	.	1.ryy	.	1.ryy	.	1.ryy	.
=3	=3	=3	=3	=3	=3	=3	=3	=3	=3	=3	=3
1.ryy	.	1.ryy	.	1.ryy	.	1.ryy	.	1.ryy	.	1.ryy	.
=4	=4	=4	=4	=4	=4	=4	=4	=4	=4	=4	=4
1.ryy	.	1.ryy	.	1.ryy	.	1.ryy	.	1.ryy	.	1.ryy	.
=5	=5	=5	=5	=5	=5	=5	=5	=5	=5	=5	=5
1.ryy	.	1.ryy	.	1.ryy	.	1.ryy	.	1.ryy	.	1.ryy	.
=6	=6	=6	=6	=6	=6	=6	=6	=6	=6	=6	=6
1.ryy	.	1.ryy	.	1.ryy	.	1.ryy	.	1.ryy	.	1.ryy	.
=7	=7	=7	=7	=7	=7	=7	=7	=7	=7	=7	=7
1.ryy	.	1.ryy	.	1.ryy	.	1.ryy	.	1.ryy	.	1.ryy	.
=8	=8	=8	=8	=8	=8	=8	=8	=8	=8	=8	=8
1.r	.	1.r	.	1.D- 1.D-	pp	1.ryy	.	1.ryy	.	1.ryy	.
=9	=9	=9	=9	=9	=9	=9	=9	=9	=9	=9	=9
1.ryy	.	1.ryy	.	1.G- 1.AA-	.	1.r	pp	1.ryy	.	1.ryy	.
=10	=10	=10	=10	=10	=10	=10	=10	=10	=10	=10	=10
1.ryy	.	1.ryy	.	[1.F [>1.AA-	.	[1.f [>1.d-	.	1.ryy	.	1.ryy	.
=11	=11	=11	=11	=11	=11	=11	=11	=11	=11	=11	=11
*	*	*	*	*rep	*	*rep	*	*	*	*	*
1.ryy	.	1.ryy	.	1.F_ 1.AA-_>	.	1.f_ 1.d-_>	.	1.ryy	.	1.ryy	.
*	*	*	*	*Xrep	*	*Xrep	*	*	*	*	*
=12	=12	=12	=12	=12	=12	=12	=12	=12	=12	=12	=12
*	*	*	*	*rep	*	*rep	*	*	*	*	*
1.ryy	.	1.ryy	.	1.F_ 1.AA-_>	.	1.f_ 1.d-_>	.	1.ryy	.	1.ryy	.
*	*	*	*	*Xrep	*	*Xrep	*	*	*	*	*
=13	=13	=13	=13	=13	=13	=13	=13	=13	=13	=13	=13
*	*	*	*	*rep	*	*rep	*	*	*	*	*
!	!	!	!	!	!	!	!	!	!	!LO:TX:a:t=P:problem=czerwona kreska taktowa we wszystkich głosach	!
1.ryy	.	1.ryy	.	1.F_ 1.AA-_>	.	1.f_ 1.d-_>	.	1.ryy	.	1.ryy	.
*	*	*	*	*Xrep	*	*Xrep	*	*	*	*	*
=14	=14	=14	=14	=14	=14	=14	=14	=14	=14	=14	=14
*	*	*	*	*rep	*	*rep	*	*	*	*	*
1.ryy	.	1.r	.	1.F] 1.AA-]	.	1.f_ 1.d-_>	.	1.ryy	.	1.ryy	.
*	*	*	*	*Xrep	*	*Xrep	*	*	*	*	*
=15	=15	=15	=15	=15	=15	=15	=15	=15	=15	=15	=15
1.ryy	.	(>[>1.e-X	.	([1.F [>1.D-	.	4f] 4d-/]	.	1.ryy	.	1.ryy	.
.	.	.	.	.	.	4r	.	.	.	.	.
.	.	.	.	.	.	4r	.	.	.	.	.
.	.	.	.	.	.	2.r	.	.	.	.	.
=16	=16	=16	=16	=16	=16	=16	=16	=16	=16	=16	=16
*	*	*	*	*rep	*	*	*	*	*	*	*
1.ryy	.	1.e-X]	.	1.F] 1.D-]	.	1.r	.	1.ryy	.	1.ryy	.
*	*	*	*	*Xrep	*	*	*	*	*	*	*
=17	=17	=17	=17	=17	=17	=17	=17	=17	=17	=17	=17
*	*	*	*	*^	*	*	*	*	*	*	*
1.ryy	.	1.f	.	2.F/	(4D-\	.	1.r	.	1.ryy	.	1.ryy	.
.	.	.	.	.	4C\	.	.	.	.	.	.	.
.	.	.	.	.	4D-\	.	.	.	.	.	.	.
*	*	*	*	*	*2\right	*	*	*	*	*	*	*
.	.	.	.	2.G-/	2E-\	.	.	.	.	.	.	.
.	.	.	.	.	4BB-\)	.	.	.	.	.	.	.
=18	=18	=18	=18	=18	=18	=18	=18	=18	=18	=18	=18	=18
1.r	.	1.e-X)	.	(2.F/	(>2.D-\	.	1.r	.	1.ryy	.	1.ryy	.
.	.	.	.	2.E-/))	2.C\)	.	.	.	.	.	.	.
*	*	*	*	*v	*v	*	*	*	*	*	*	*
!!LO:LB:g=original
=19	=19	=19	=19	=19	=19	=19	=19	=19	=19	=19	=19
1.r	.	2.f/	.	([1.D- 1.D-	.	1.ryy	.	1.ryy	.	1.ryy	.
.	.	2e-X/	.	.	.	.	.	.	.	.	.
!	!	!	!	!	!	!	!	!	!	!LO:TX:a:t=P:problem=czerwona kreska taktowa we wszystkich głosach	!
.	.	4d-X/	.	.	.	.	.	.	.	.	.
=20	=20	=20	=20	=20	=20	=20	=20	=20	=20	=20	=20
1.r	.	[>1.e-X	.	1.F 1.D-]	.	1.ryy	.	1.ryy	.	1.ryy	.
=21	=21	=21	=21	=21	=21	=21	=21	=21	=21	=21	=21
*	*	*	*	*^	*	*	*	*	*	*	*
*	*	*rep	*	*	*	*	*	*	*	*	*	*
1.r	.	1.e-]	.	[2.G-/	1.AA-	.	1.r	.	1.ryy	.	1.ryy	.
.	.	.	.	2G-/]	.	.	.	.	.	.	.	.
.	.	.	.	4E-/)	.	.	.	.	.	.	.	.
*	*	*Xrep	*	*	*	*	*	*	*	*	*	*
*	*	*	*	*v	*v	*	*	*	*	*	*	*
=22	=22	=22	=22	=22	=22	=22	=22	=22	=22	=22	=22
*	*	*clefF4	*	*	*	*	*	*	*	*	*
1.r	.	[1.C [>1.CC	.	[1.D- [>1.AA-	.	[1.d- [>1.A-	.	1.ryy	.	1.ryy	.
=23	=23	=23	=23	=23	=23	=23	=23	=23	=23	=23	=23
*	*	*rep	*	*rep	*	*rep	*	*	*	*	*
1.r	.	1.C_ 1.CC_>	.	1.D-_ 1.AA-_>	.	1.d-_ 1.A-_>	.	1.ryy	.	1.ryy	.
*	*	*Xrep	*	*Xrep	*	*Xrep	*	*	*	*	*
=24	=24	=24	=24	=24	=24	=24	=24	=24	=24	=24	=24
*	*	*rep	*	*rep	*	*rep	*	*	*	*	*
1.r	.	1.C_ 1.CC_>	.	1.D-_ 1.AA-_>	.	1.d-_ 1.A-_>	.	1.ryy	.	1.ryy	.
*	*	*Xrep	*	*Xrep	*	*Xrep	*	*	*	*	*
=25	=25	=25	=25	=25	=25	=25	=25	=25	=25	=25	=25
*	*	*rep	*	*rep	*	*rep	*	*	*	*	*
1.r	.	1.C_ 1.CC_>	.	1.D-_ 1.AA-_>	.	1.d-_ 1.A-_>	.	1.ryy	.	1.ryy	.
*	*	*Xrep	*	*Xrep	*	*Xrep	*	*	*	*	*
=26	=26	=26	=26	=26	=26	=26	=26	=26	=26	=26	=26
*	*	*	*	*rep	*	*rep	*	*	*	*	*
1.r	.	2.C_ 2.CC/_	.	1.D-] 1.AA-]	.	1.d-_ 1.A-_>	.	1.r	.	1.r	.
.	.	4C] 4CC/]	.	.	.	.	.	.	.	.	.
.	.	4r	.	.	.	.	.	.	.	.	.
*	*	*	*	*kcancel	*	*	*	*kcancel	*	*kcancel	*
!LO:TX:a:t=P:problem=brak kasowników	!	!LO:TX:a:t=P:problem=brak kasowników	!	!LO:TX:a:t=P:problem=kasowniki przed kreską taktową	!	!LO:TX:a:t=P:problem=brak kasowników	!	!LO:TX:a:t=P:problem=kasowniki przed kreską taktową	!	!LO:TX:a:t=P:problem=kasowniki przed kreską taktową	!
.	.	4r	.	.	.	.	.	.	.	.	.
*	*	*	*	*Xrep	*	*Xrep	*	*	*	*	*
=27||	=27||	=27||	=27||	=27||	=27||	=27||	=27||	=27||	=27||	=27||	=27||
*	*	*	*	*k[f#c#g#d#]	*	*	*	*k[f#c#g#d#]	*	*k[f#c#g#d#]	*
*	*	*	*	*^	*	*	*	*^	*	*^	*
!	!	!	!	!	!	!	!	!	!	!	!	!	!	!
!	!	!	!	!	!	!	!	!	!LO:TX:t=P:problem=kolejność znaków f# cc# g# dd#	!	!	!LO:TX:t=P:problem=kolejność znaków f# cc# g# dd#	!	!
!	!	!	!	!	!	!	!	!	!	!	!LO:DY:rj	!	!LO:TX:a:t=Fl&colon;	!LO:DY:rj
1.r	.	1.r	.	(2.Bn/	2.Bn\	.	4d-] 4A-/]	.	(2.g#/	1.re	pp	[1.cc#	1.r	pp
.	.	.	.	.	.	.	4r	.	.	.	.	.	.	.
.	.	.	.	.	.	.	4r	.	.	.	.	.	.	.
.	.	.	.	2.A/	2.A\	.	2.r	.	2.f#/	.	.	.	.	.
=28	=28	=28	=28	=28	=28	=28	=28	=28	=28	=28	=28	=28	=28	=28
1.ryy	.	1.ryy	.	2.G#/	2.G#\	.	1.ryy	.	2.e#X/	1.r	.	1.cc#]	1.r	.
.	.	.	.	2.F#/	2.F#\	.	.	.	2.f#/)	.	.	.	.	.
*	*	*	*	*	*	*	*	*	*v	*v	*	*	*	*
=29	=29	=29	=29	=29	=29	=29	=29	=29	=29	=29	=29	=29	=29
1.ryy	.	1.ryy	.	1.E	1.E	.	1.ryy	.	1.ryy	.	(4cc#/	1.r	<
.	.	.	.	.	.	.	.	.	.	.	4b/	.	.
.	.	.	.	.	.	.	.	.	.	.	4cc#/	.	[
.	.	.	.	.	.	.	.	.	.	.	2ee/	.	>
.	.	.	.	.	.	.	.	.	.	.	4b/	.	]
*	*	*	*	*v	*v	*	*	*	*	*	*	*	*
=30	=30	=30	=30	=30	=30	=30	=30	=30	=30	=30	=30	=30
1.r	.	1.r	.	2.F# 2.BB\	.	1.ryy	.	1.ryy	.	1.b)	1.r	.
.	.	.	.	2.G# 2.E\)	.	.	.	.	.	.	.	.
!!LO:LB:g=original
=31	=31	=31	=31	=31	=31	=31	=31	=31	=31	=31	=31	=31
*	*	*	*	*^	*	*	*	*	*	*	*	*
1.ryy	.	1.ryy	.	2.A/	2.AA\	.	1.ryy	.	1.ryy	.	([2.cc#^/	1.r	.
.	.	.	.	2.F#/	2.Dn\	.	.	.	.	.	4cc#/]	.	.
.	.	.	.	.	.	.	.	.	.	.	4b/	.	.
.	.	.	.	.	.	.	.	.	.	.	4a/	.	.
=32	=32	=32	=32	=32	=32	=32	=32	=32	=32	=32	=32	=32	=32
1.ryy	.	1.ryy	.	2.B/	2.E\	.	1.ryy	.	1.ryy	.	[1.g#)	1.r	.
!	!	!	!	!	!	!	!	!	!	!	!	!LO:TX:a:t=P:problem=czerwona kreska taktowa we wszystkich głosach	!
*	*	*	*	*	*kcancel	*	*	*	*kcancel	*	*kcancel	*	*
!	!	!	!	!	!LO:TX:a:t=P:problem=kasowniki przed kreską taktową	!	!	!	!LO:TX:a:t=P:problem=kasowniki przed kreską taktową, kolejność znaków fn ccn gn ddn	!	!LO:TX:a:t=P:problem=kasowniki przed kreską taktową, kolejność znaków fn ccn gn ddn	!	!
.	.	.	.	2.c#/	(2.AA\	.	.	.	.	.	.	.	.
*	*	*	*	*v	*v	*	*	*	*	*	*v	*v	*
=33||	=33||	=33||	=33||	=33||	=33||	=33||	=33||	=33||	=33||	=33||	=33||
*	*	*	*	*k[b-e-a-d-g-]	*	*	*	*k[b-e-a-d-g-]	*	*k[b-e-a-d-g-]	*
*	*	*	*	*^	*	*^	*	*	*	*^	*
1.ryy	.	1.ryy	.	2.Fn/	1.AA-X)	.	2.r	2.ryy	.	1.r	ppp	4g#X/]	1.r	.
.	.	.	.	.	.	.	.	.	.	.	.	4r	.	.
.	.	.	.	.	.	.	.	.	.	.	.	4r	.	.
.	.	.	.	2.E-/	.	.	4r	4ryy	.	.	.	4r	.	.
.	.	.	.	.	.	.	4r	4ryy	.	.	.	4r	.	.
.	.	.	.	.	.	.	(4A-/	4A-\	.	.	.	(4a-X/	.	.
*	*	*	*	*v	*v	*	*	*	*	*	*	*	*	*
=34	=34	=34	=34	=34	=34	=34	=34	=34	=34	=34	=34	=34	=34
*	*	*	*	*	*	*	*	*	*^	*	*	*	*
*	*	*	*	*	*	*	*	*	*	*	*	*2\right	*	*
1.ryy	.	1.ryy	.	(1.F 1.D-	ppp	[2.f [2.d-/	2.ryy	.	(1.dd-	1.r	.	[<2.ff\	1.r	.
.	.	.	.	.	.	2f] 2d-/])	4ryy	.	.	.	.	2ff\])	.	.
.	.	.	.	.	.	.	4ryy	.	.	.	.	.	.	.
.	.	.	.	.	.	(4A-/	4A-\	.	.	.	.	(4a-/	.	.
=35	=35	=35	=35	=35	=35	=35	=35	=35	=35	=35	=35	=35	=35	=35
1.ryy	.	1.ryy	.	1.G- 1.E-	.	[2.a- [2.c/	2.ryy	.	1.cc	1.r	.	[2.aa-\	1.r	.
.	.	.	.	.	.	2a-] 2c/])	4ryy	.	.	.	.	2aa-\])	.	.
.	.	.	.	.	.	.	4ryy	.	.	.	.	.	.	.
.	.	.	.	.	.	(4A-/	4A-\	.	.	.	.	(4a-/	.	.
=36	=36	=36	=36	=36	=36	=36	=36	=36	=36	=36	=36	=36	=36	=36
1.ryy	.	1.ryy	.	1.F 1.D-	.	[2.f [2.d-/	2.ryy	.	1.dd-	1.r	.	[<2.ff\	1.r	.
.	.	.	.	.	.	2f] 2d-/])	4ryy	.	.	.	.	2ff\])	.	.
.	.	.	.	.	.	.	4ryy	.	.	.	.	.	.	.
.	.	.	.	.	.	(4A-/	4A-\	.	.	.	.	(4a-/	.	.
*	*	*	*	*	*	*v	*v	*	*	*	*	*	*	*
=37	=37	=37	=37	=37	=37	=37	=37	=37	=37	=37	=37	=37	=37
1.r	.	1.r	.	1.G- 1.E-)	.	[2.a- [2.c/	.	[2.cc/)	2.r	.	[<2.aa-\	1.r	.
.	.	.	ppp	.	.	2a-] 2c/])	.	2cc/]	4r	.	2aa-\])	.	.
.	.	.	.	.	.	.	.	.	4r	.	.	.	.
.	.	.	.	.	.	4a- 4A-'/	.	4a-/	4a-\	ppp	(4a-/	.	.
=38	=38	=38	=38	=38	=38	=38	=38	=38	=38	=38	=38	=38	=38
!	!	!LO:CL:ed	!	!	!	!	!	!	!	!	!	!	!
*	*	*clefG2	*	*	*	*	*	*	*	*	*	*	*
*	*	*	*	*^	*	*^	*	*	*	*	*	*	*
*	*	*	*	*	*	*	*	*2\right	*	*	*	*	*	*	*
1.AA-yTT	ppp	([1.cc [>1.e-X	.	[1.F	(2.D-\	.	[1.a-	(2.d-\	.	[1.ff	[>1.a-	.	[<1.ff	1.r	.
.	.	.	.	.	2.C\	.	.	2.c\	.	.	.	.	.	.	.
=39	=39	=39	=39	=39	=39	=39	=39	=39	=39	=39	=39	=39	=39	=39	=39
*	*	*2\right	*	*	*	*	*	*	*	*2\right	*	*	*	*	*
4AA-y/	.	2cc] 2e-X\]	.	2F/]	2.BBn\	.	2a-/]	2.BX\	.	2ff\]	2a-\]	.	2ff/]	1.r	.
4r	.	.	.	.	.	.	.	.	.	.	.	.	.	.	.
4AA-'/	.	4cc 4e-'\	.	4F'</	.	.	4a-'</	.	.	4ff'\	4a-\	.	4ff'</	.	.
4AA-'/	.	2cc 2e-\	.	2F/	2.C\)	.	2a-/	2.c\)	.	2ff\	2a-\	.	2ff/	.	.
4r	.	.	.	.	.	.	.	.	.	.	.	.	.	.	.
!	!	!	!	!	!	!	!	!	!	!	!	!	!	!LO:TX:a:t=P:problem=czerwona kreska taktowa we wszystkich głosach	!
4AA-'/	.	4cc 4e-'\)	.	4F'</	.	.	4a-'</	.	.	4ff'\	4a-\	.	4ff'</)	.	.
!!LO:PB:g=original
=40	=40	=40	=40	=40	=40	=40	=40	=40	=40	=40	=40	=40	=40	=40	=40
*rep	*	*rep	*	*rep	*rep	*	*rep	*rep	*	*rep	*rep	*	*rep	*rep	*
!	!	!	!	!	!	!	!	!	!	!	!	!	!	!LO:TX:a:t=P:problem=dwutaktowa repetycja we wszystkich głosach	!
1.AA-yTT	ppp	([1.cc [>1.e-X	.	[1.F	(2.D-\	.	[1.a-	(2.d-\	.	[1.ff	[>1.a-	.	[<1.ff	1.r	.
.	.	.	.	.	2.C\	.	.	2.c\	.	.	.	.	.	.	.
=41	=41	=41	=41	=41	=41	=41	=41	=41	=41	=41	=41	=41	=41	=41	=41
4AA-y/	.	2cc] 2e-X\]	.	2F/]	2.BBn\	.	2a-/]	2.BX\	.	2ff\]	2a-\]	.	2ff/]	1.r	.
4r	.	.	.	.	.	.	.	.	.	.	.	.	.	.	.
4AA-'/	.	4cc 4e-'\	.	4F'</	.	.	4a-'</	.	.	4ff'\	4a-\	.	4ff'</	.	.
4AA-'/	.	2cc 2e-\	.	2F/	2.C\)	.	2a-/	2.c\)	.	2ff\	2a-\	.	2ff/	.	.
4r	.	.	.	.	.	.	.	.	.	.	.	.	.	.	.
4AA-'/	.	4cc 4e-'\)	.	4F'</	.	.	4a-'</	.	.	4ff'\	4a-\	.	4ff'</)	.	.
*Xrep	*	*Xrep	*	*Xrep	*Xrep	*	*Xrep	*Xrep	*	*Xrep	*Xrep	*	*Xrep	*Xrep	*
=42	=42	=42	=42	=42	=42	=42	=42	=42	=42	=42	=42	=42	=42	=42	=42
*	*	*^	*	*	*	*	*	*	*	*	*	*	*	*	*
2AA-y/	.	4cc/	4e-X\	.	4F/	[2.D-\	.	4a-/	4rf	.	4ff\	4a-\	.	4ff\	1.r	.
.	.	4r	4ryy	.	4r	.	.	4r	4rf	.	4r	4ryy	.	4r	.	.
4r	.	4c/	4e-\	.	(4D-/	.	.	(4a-/	(>4f\	.	4r	4ryy	.	(4a-\	.	.
4r	.	[2.cc/	[2.e-\	.	[2.d-/)	4D-\]	.	[2.ff/)	[>2.dd-\)	.	2r	2ryy	.	[2.ff\)	.	.
4r	.	.	.	.	.	4r	.	.	.	.	.	.	.	.	.	.
4AA-/	.	.	.	.	.	(>4AA-\	.	.	.	.	4r	4ryy	.	.	.	.
*	*	*	*	*	*	*	*	*	*	*	*v	*v	*	*	*	*
*	*	*	*	*	*	*	*	*	*	*	*	*	*v	*v	*
=43	=43	=43	=43	=43	=43	=43	=43	=43	=43	=43	=43	=43	=43	=43
2AA-y/	.	4cc/]	4e-\]	.	4d-/]	[2.D-\)	.	4ff/]	4dd-\]	.	1.r	.	4ff\]	.
.	.	4r	4ryy	.	4r	.	.	4r	4ryy	.	.	.	4r	.
4r	.	4c/	4e-y\	.	(4D-/	.	.	(4a-/	(>4f\	.	.	.	(4a-/	.
4r	.	[2.cc/	[2.e-\	.	[2.d-/)	4D-\]	.	[2.ff/)	[>2.dd-\)	.	.	.	[2.ff\)	.
4r	.	.	.	.	.	4r	.	.	.	.	.	.	.	.
4AA-/	.	.	.	.	.	(>4AA-\	.	.	.	.	.	.	.	.
*	*	*v	*v	*	*	*	*	*v	*v	*	*	*	*	*
*	*	*	*	*v	*v	*	*	*	*	*	*	*
=44||	=44||	=44||	=44||	=44||	=44||	=44||	=44||	=44||	=44||	=44||	=44||
*M4/4	*	*M4/4	*	*M4/4	*	*M4/4	*	*M4/4	*	*M4/4	*
*met(c)	*	*met(c)	*	*met(c)	*	*met(c)	*	*met(c)	*	*met(c)	*
*	*	*^	*	*^	*	*^	*	*	*	*	*
!	!	!	!	!	!	!	!	!	!	!	!	!	!	!LO:HP:a:t=dimin&colon;
1AA-yT	.	2cc/_	2e-\_	.	2.d-/_	[>4D-\)	.	4ff/]	2.dd-\_	.	1r	.	2.ff/_>	>
.	.	.	.	.	.	8D-\]	.	4r	.	.	.	.	.	.
.	.	.	.	.	.	8r	.	.	.	.	.	.	.	.
.	.	8cc/]	8e-\]	.	.	2r	.	2r	.	.	.	.	.	.
.	.	8r	8ryy	.	.	.	.	.	.	.	.	.	.	.
.	.	4r	4ryy	.	8d-/]	.	.	.	8dd-\]	.	.	.	8ff/]	.
.	.	.	.	.	8r	.	.	.	8r	.	.	.	8r	.
*	*	*v	*v	*	*	*	*	*v	*v	*	*	*	*	*
*	*	*	*	*v	*v	*	*	*	*	*	*	*
=45	=45	=45	=45	=45	=45	=45	=45	=45	=45	=45	=45
8AA-y/	.	1r	.	1r	.	1r	.	1r	.	1r	.
8r	.	.	.	.	.	.	.	.	.	.	.
4r	.	.	.	.	.	.	.	.	.	.	.
2r	.	.	.	.	.	.	.	.	.	.	.
=46	=46	=46	=46	=46	=46	=46	=46	=46	=46	=46	=46
!	!	!LO:TX:b:t=/ 8	!	!	!	!LO:TX:b:t=/ 8	!	!	!	!LO:TX:b:t=/ 8	!
1ryy	.	1ryy	.	1ryy	.	1ryy	.	1ryy	.	1ryy	.
=47	=47	=47	=47	=47	=47	=47	=47	=47	=47	=47	=47
1ryy	.	1ryy	.	1ryy	.	1ryy	.	1ryy	.	1ryy	.
=48	=48	=48	=48	=48	=48	=48	=48	=48	=48	=48	=48
1ryy	.	1ryy	.	1ryy	.	1ryy	.	1ryy	.	1ryy	.
=49	=49	=49	=49	=49	=49	=49	=49	=49	=49	=49	=49
1ryy	.	1ryy	.	1ryy	.	1ryy	.	1ryy	.	1ryy	.
=50	=50	=50	=50	=50	=50	=50	=50	=50	=50	=50	=50
1ryy	.	1ryy	.	1ryy	.	1ryy	.	1ryy	.	1ryy	.
=51	=51	=51	=51	=51	=51	=51	=51	=51	=51	=51	=51
1ryy	.	1ryy	.	1ryy	.	1ryy	.	1ryy	.	1ryy	.
=52	=52	=52	=52	=52	=52	=52	=52	=52	=52	=52	=52
1ryy	.	1ryy	.	1ryy	.	1ryy	.	1ryy	.	1ryy	.
=53	=53	=53	=53	=53	=53	=53	=53	=53	=53	=53	=53
1ryy	.	1ryy	.	1ryy	.	1ryy	.	1ryy	.	1ryy	.
!!LO:LB:g=original
=54	=54	=54	=54	=54	=54	=54	=54	=54	=54	=54	=54
*	*	*^	*	*^	*	*	*	*^	*	*^	*
!	!	!	!	!	!	!	!	!	!	!	!	!	!LO:TX:a:t=Fl. 1\nmo\nFl. 2do	!	!
1r	.	[1g	[1G	???	[1Gn	[>1GGn	???	4r	.	[1e-	1r	???	4r	4ryy	p
!	!	!	!	!	!	!	!	!	!	!	!	!	!LO:TX:a:i:t=Soli	!	!
.	.	.	.	.	.	.	.	8r	pp	.	.	.	8r	8ryy	.
!	!	!	!	!	!	!	!	!LO:TX:a:i:t=Soli	!	!	!	!	!	!	!
.	.	.	.	.	.	.	.	(>8g 8c/	.	.	.	.	(8gn/	8e-\	.
.	.	.	.	.	.	.	.	4.c 4.G/	.	.	.	.	4.ee-/	4.cc\	.
.	.	.	.	.	.	.	.	8g 8c/	.	.	.	.	8g/	8e-\	.
=55	=55	=55	=55	=55	=55	=55	=55	=55	=55	=55	=55	=55	=55	=55	=55
1r	.	8g/]	1G]	.	8G/]	(1GG]	.	4.c 4.G/	.	8e-/]	1r	.	4.ee-/	4.cc\	.
.	.	8rg	.	.	8r	.	.	.	.	8r	.	.	.	.	.
.	.	4rg	.	.	4r	.	.	.	.	4r	.	.	.	.	.
.	.	.	.	.	.	.	.	8g 8c/	.	.	.	.	8gn/	8e-\	.
.	.	2rg	.	.	2r	.	.	8cL 8G/	.	2r	.	.	8ee-/L	8cc\L	.
.	.	.	.	.	.	.	.	16r	.	.	.	.	16r	16ryy	.
.	.	.	.	.	.	.	.	16gJk 16c/	.	.	.	.	16g/Jk	16e-\Jk	.
.	.	.	.	.	.	.	.	8c 8G/)	.	.	.	.	8ee-/)	8cc\	.
.	.	.	.	.	.	.	.	8r	.	.	.	.	8r	8ryy	.
*	*	*	*	*	*	*	*	*	*	*v	*v	*	*	*	*
*	*	*v	*v	*	*	*	*	*	*	*	*	*v	*v	*
=56	=56	=56	=56	=56	=56	=56	=56	=56	=56	=56	=56	=56
!	!	!	!	!	!	!LO:DY:a	!	!	!	!	!	!
1r	.	1r	.	[1AA-	8AA-\)	p	1r	.	1r	.	1r	.
.	.	.	.	.	8rBB	.	.	.	.	.	.	.
.	.	.	.	.	4rBB	.	.	.	.	.	.	.
.	.	.	.	.	2rBB	.	.	.	.	.	.	.
*	*	*	*	*v	*v	*	*	*	*	*	*	*
=57	=57	=57	=57	=57	=57	=57	=57	=57	=57	=57	=57
1r	.	1r	.	4AA-/]	.	1r	.	1r	.	1r	.
.	.	.	.	4r	.	.	.	.	.	.	.
.	.	.	p	2r	.	.	.	.	.	.	.
=58	=58	=58	=58	=58	=58	=58	=58	=58	=58	=58	=58
*	*	*	*	*^	*	*	*	*	*	*	*
!	!	!	!	!LO:TX:a:i:t=Soli	!	!	!	!	!	!	!LO:TX:a:t=piu agitato.:color=blue	!
1r	.	1r	.	[1AA-	[1DD-	.	1ryy	.	1ryy	.	1ryy	.
=59	=59	=59	=59	=59	=59	=59	=59	=59	=59	=59	=59	=59
1r	.	[1cc [>1c^	.	(1AA-]	1DD-_	.	1ryy	.	1ryy	.	1ryy	.
=60	=60	=60	=60	=60	=60	=60	=60	=60	=60	=60	=60	=60
!	!	!	!	!	!LO:TX:a:t=P:problem=brak kontynuacji ligatury	!	!	!	!	!	!	!
1r	.	1cc] 1c^]	.	2AAn/	1DD-_	.	1ryy	.	1ryy	.	1ryy	.
.	.	.	.	2BB-/	.	.	.	.	.	.	.	.
*	*	*	*	*v	*v	*	*	*	*	*	*	*
!!LO:LB:g=original
=61	=61	=61	=61	=61	=61	=61	=61	=61	=61	=61	=61
*	*	*clefF4	*	*	*	*	*	*	*	*	*
*	*	*^	*	*	*	*^	*	*	*	*	*
!	!	!	!	!	!	!	!	!	!	!	!	!LO:TX:a:t=P:problem=czerwona kreska we wszystkich głosach	!
1r	.	(1C	(1CC	.	&(>1BB-) 1DD-]	.	([1f	1r	.	1r	.	1r	.
=62	=62	=62	=62	=62	=62	=62	=62	=62	=62	=62	=62	=62	=62
1r	.	4G/)	1GG)	.	1GGn&) [1CC	.	2f/]	1r	.	1r	.	1r	.
.	.	4r	.	.	.	.	.	.	.	.	.	.	.
.	.	2r	.	.	.	.	2eX/	.	.	.	.	.	.
*	*	*v	*v	*	*	*	*	*	*	*	*	*	*
*	*	*clefG2	*	*	*	*	*	*	*	*	*	*
=63	=63	=63	=63	=63	=63	=63	=63	=63	=63	=63	=63	=63
*	*	*	*	*^	*	*	*	*	*	*	*	*
1r	.	[1g [>1G	.	(1FF	4CC\]	.	4f/)	1r	.	1r	.	1r	.
.	.	.	.	.	4r	.	4r	.	.	.	.	.	.
.	.	.	.	.	2r	.	2r	.	.	.	.	.	.
*	*	*	*	*v	*v	*	*	*	*	*	*	*	*
*	*	*	*	*	*	*v	*v	*	*	*	*	*
=64	=64	=64	=64	=64	=64	=64	=64	=64	=64	=64	=64
*	*	*rep	*	*	*	*	*	*	*	*	*
1r	.	1g] 1G]	.	1GGn)	.	1r	.	1r	.	1r	.
.	.	.	fp	.	fp	.	.	.	fp	.	.
*	*	*Xrep	*	*	*	*	*	*	*	*	*
=65	=65	=65	=65	=65	=65	=65	=65	=65	=65	=65	=65
1r	.	1g 1G	.	(2.AA- (2.FF/	.	1r	.	1a- 1f	.	1r	.
!	!	!	!	!	!	!	!LO:DY:t=f.	!	!	!LO:TX:a:t=P:problem=czerwona kreska we wszystkich głosach	!
.	f	.	f	4F 4AA-/))	f	.	f	.	.	.	.
=66	=66	=66	=66	=66	=66	=66	=66	=66	=66	=66	=66
*	*	*	*	*	*	*	*	*^	*	*	*
!	!	!	!	!	!	!	!	!	!	!LO:HP:t=dimin	!	!
1CTT	>	[1g 1G	>	(4En 4C/	.	(>4eX 4c/	.	[2.gn/	[>2.gn\	>	1r	.
!	!	!	!	!	!LO:HP:t=dimin	!	!	!	!	!	!	!
.	.	.	.	8D#XL 8BBn/	>	8e-L 8c-X/	.	.	.	.	.	.
!	!	!	!	!	!	!	!LO:HP:a:t=dimin	!	!	!	!	!
.	.	.	.	8DnJ 8BB-X/	.	8d-J 8B-/	>	.	.	.	.	.
.	.	.	.	8C#XL 8AAn/	.	8c#XL 8A/	.	.	.	.	.	.
.	.	.	.	8Cn 8AA-X/	.	8c 8A-X/	.	.	.	.	.	.
.	.	.	.	8BBn 8GGn/	.	8BX 8G/	.	8.g/L]	8.g\L]	.	.	.
.	]	.	]	8BB-XJ 8GG-X/)	.	8B-J 8G-X/)	.	.	.	.	.	.
.	.	.	.	.	.	.	.	16c/Jk	16c\Jk	.	.	.
=67	=67	=67	=67	=67	=67	=67	=67	=67	=67	=67	=67	=67
*	*	*^	*	*^	*	*^	*	*	*	*	*	*
1CTTT	.	8g/]	[>2.G\	.	(4BB- 4FF/	4ryy	.	(4B-/	4F\	.	4c/	4c\	.	1r	.
.	.	8r	.	.	.	.	.	.	.	.	.	.	.	.	.
.	.	4r	.	.	4F\	4AA-\	.	4A-X/	4rG	.	4r	4ryy	.	.	.
.	.	2r	.	.	4En\	4GGn\	.	4G/	2rG	.	2r	2ryy	.	.	.
.	.	.	8G\]	.	4E-X\)	4GG-X\	.	4G-X/)	.	.	.	.	.	.	.
.	.	.	8r	.	.	.	.	.	.	.	.	.	.	.	.
*	*	*v	*v	*	*	*	*	*	*	*	*	*	*	*	*
*	*	*	*	*v	*v	*	*	*	*	*	*	*	*	*
!!LO:PB:g=original
=68	=68	=68	=68	=68	=68	=68	=68	=68	=68	=68	=68	=68	=68
!	!	!	!	!	!	!	!	!	!LO:TX:a:t=Solo	!	!	!	!
1CTTT	.	1r	.	[1G-X [>1E-	.	4G-X/	1r	.	2re	1r	.	1r	.
.	.	.	.	.	.	4r	.	.	.	.	p	.	.
.	.	.	.	.	.	2r	.	.	([2cc^</	.	.	.	.
*	*	*	*	*	*	*v	*v	*	*	*	*	*	*
=69	=69	=69	=69	=69	=69	=69	=69	=69	=69	=69	=69	=69
*	*	*	*	*rep	*	*	*	*	*	*	*	*
1AA-yTTT	.	1r	.	1G-] 1E-]	.	1r	.	2cc/]	1r	.	1r	.
.	.	.	.	.	.	.	.	[2cc^</	.	.	.	.
*	*	*	*	*Xrep	*	*	*	*	*	*	*	*
*	*	*	*	*	*	*	*	*v	*v	*	*	*
=70||	=70||	=70||	=70||	=70||	=70||	=70||	=70||	=70||	=70||	=70||	=70||
*M6/4	*	*M6/4	*	*M6/4	*	*M6/4	*	*M6/4	*	*M6/4	*
1.AA-yTTT	.	1.r	.	[1.F [>1.D-	.	[>1.d-	.	2.cc/])	.	1.ryy	.
.	.	.	.	.	.	.	.	(>[2.cc/	.	.	.
=71	=71	=71	=71	=71	=71	=71	=71	=71	=71	=71	=71
*rep	*	*	*	*rep	*	*	*	*	*	*	*
1.AA-yTTT	.	1.r	.	1.F] 1.D-]	.	1.d-^>]	.	2.cc/]	.	1.ryy	.
.	.	.	.	.	.	.	.	2.b-/)	.	.	.
*Xrep	*	*	*	*Xrep	*	*	*	*	*	*	*
=72	=72	=72	=72	=72	=72	=72	=72	=72	=72	=72	=72
*rep	*	*	*	*	*	*	*	*	*	*	*
!	!	!	!	!LO:S:s=2:note:problem=note-level slur	!	!	!	!	!	!	!
1.AA-yTTT	.	1.r	.	(2.A- (>2.F\	.	(>4d-/	.	[2.b-/	.	1.ryy	.
.	.	.	.	.	.	4c/	.	.	.	.	.
.	.	.	.	.	.	4d-/	.	.	.	.	.
.	.	.	.	2.G- 2.E-\))	.	2e-/	.	2b-/]	.	.	.
.	.	.	.	.	.	4B-/	.	4b-/	.	.	.
*Xrep	*	*	*	*	*	*	*	*	*	*	*
=73	=73	=73	=73	=73	=73	=73	=73	=73	=73	=73	=73
*rep	*	*	*	*	*	*	*	*	*	*	*
1.AA-yTTT	.	1.r	.	1.G- 1.E-	.	2.d-/	.	(2.b-/	.	1.r	.
.	.	.	.	.	.	2c/)	.	2a-/)	.	.	.
!	!	!	!	!	!	!	!	!	!	!LO:TX:a:t=x:color=red	!
!	!	!	!	!	!	!	!	!	!	!LO:TX:a:t=Fl. 1mo	!
.	.	.	.	.	.	4r	.	4r	.	.	.
*Xrep	*	*	*	*	*	*	*	*	*	*	*
=74	=74	=74	=74	=74	=74	=74	=74	=74	=74	=74	=74
*	*	*	*	*	*	*	*	*	*	*^	*
*rep	*	*	*	*	*	*	*	*	*	*	*	*
1.AA-yTTT	.	1.r	.	[1.F [>1.D-	.	(>2.d-/	.	1.r	.	([2.a-/	1.r	.
.	.	.	.	.	.	.	.	.	.	.	.	<
.	.	.	.	.	.	2c/	.	.	.	4a-/]	.	.
.	.	.	.	.	.	.	.	.	.	4cc/	.	.
.	.	.	.	.	.	4B-/	.	.	.	4dd-/	.	[
*Xrep	*	*	*	*	*	*	*	*	*	*	*	*
!!LO:LB:g=original
=75	=75	=75	=75	=75	=75	=75	=75	=75	=75	=75	=75	=75
*	*	*	*	*	*	*^	*	*	*	*	*	*
!	!	!	!	!	!	!LO:TX:a:t=P:problem=brak zakończenia łuku	!	!	!	!	!	!	!
1.AA-yTTT	.	1.r	.	1.F] 1.D-]	.	[1.A-)	1.r	.	1.r	.	[<2.ff/	1.r	>
.	.	.	.	.	.	.	.	.	.	.	4ff/]	.	.
.	.	.	.	.	.	.	.	.	.	.	4ee-/	.	.
!	!	!	!	!	!	!	!	!	!	!	!LO:TX:a:t=P:problem=czerwona kreska we wszystkich głosach	!	!
.	.	.	.	.	.	.	.	.	.	.	4dd-/	.	]
=76	=76	=76	=76	=76	=76	=76	=76	=76	=76	=76	=76	=76	=76
*rep	*	*	*	*	*	*	*	*	*	*	*	*	*
1.AA-yTTT	.	1.r	.	2.G- 2.E-\	.	4A-/]	1.r	.	1.r	.	2cc/	1.r	.
.	.	.	.	.	.	(4G/	.	.	.	.	.	.	.
.	.	.	.	.	.	4A-/	.	.	.	.	4b-/	.	.
.	.	.	.	2.E- 2.C\	.	4c/	.	.	.	.	2a-/	.	.
.	.	.	.	.	.	4B-/	.	.	.	.	.	.	.
.	.	.	.	.	.	4A-/)	.	.	.	.	4g-/	.	.
*Xrep	*	*	*	*	*	*	*	*	*	*	*	*	*
=77	=77	=77	=77	=77	=77	=77	=77	=77	=77	=77	=77	=77	=77
*	*	*	*	*^	*	*	*	*	*	*	*	*	*
*rep	*	*	*	*	*	*	*	*	*	*	*	*	*	*
!	!	!	!	!	!LO:N:vis=1	!	!	!	!	!	!	!	!	!
1.AA-yTTT	.	1.r	.	2.F/	1.D-	.	(2.d-/	1.r	.	1.r	.	2.f/	1.r	.
.	.	.	.	2.En/	.	.	2.c/)	.	.	.	.	2a-/)	.	.
.	.	.	.	.	.	.	.	.	.	.	.	4r	.	.
*Xrep	*	*	*	*	*	*	*	*	*	*	*	*	*	*
=78	=78	=78	=78	=78	=78	=78	=78	=78	=78	=78	=78	=78	=78	=78
*rep	*	*	*	*	*	*	*	*	*	*	*	*	*	*
!	!	!	!	!LO:TX:b:t=1mo	!	!	!	!	!	!	!	!	!	!
!	!	!	!	!LO:TX:a:t=2do	!	!	!	!	!	!	!	!LO:TX:b:i:t=Piccolo	!	!
1.AA-yTTT	.	1.r	.	[>1.E-X	[>1.A-	.	(<[2.c-X/	1.r	.	1.r	.	2.r	2.ryy	.
.	.	.	.	.	.	.	4c-/]	.	.	.	.	([2.a-/	[>2.a-\	.
.	.	.	.	.	.	.	4B-/	.	.	.	.	.	.	.
.	.	.	.	.	.	.	4c-/)	.	.	.	.	.	.	.
*Xrep	*	*	*	*	*	*	*	*	*	*	*	*	*	*
=79	=79	=79	=79	=79	=79	=79	=79	=79	=79	=79	=79	=79	=79	=79
*rep	*	*	*	*rep	*rep	*	*	*	*	*	*	*	*	*
1.AA-yTTT	.	1.r	.	1.E-]	1.A-]	.	(1.c-X	1.r	.	1.r	.	2a-/]	2a-\]	.
.	.	.	.	.	.	.	.	.	.	.	.	4cc-X/	4cc-\	.
.	.	.	.	.	.	.	.	.	.	.	.	4ee-/	4ee-\	.
.	.	.	.	.	.	.	.	.	.	.	.	4dd-/	4dd-\	.
.	.	.	.	.	.	.	.	.	.	.	.	4cc-/)	4cc-\	.
*Xrep	*	*	*	*Xrep	*Xrep	*	*	*	*	*	*	*	*	*
=80	=80	=80	=80	=80	=80	=80	=80	=80	=80	=80	=80	=80	=80	=80
*	*	*^	*	*	*	*	*	*	*	*	*	*	*	*
*rep	*	*	*	*	*	*	*	*	*	*	*	*	*	*	*
1.AA-yTTT	.	2.r	1.r	.	4F/	4F\	.	4B-/)	1.r	.	1.r	.	(2.cc-X^/	2.cc-\	.
.	.	.	.	.	4r	4ryy	.	4r	.	.	.	.	.	.	.
.	.	.	.	.	4BB-/	4BB-\	.	4r	.	.	.	.	.	.	.
!	!	!	!	!LO:DY:a	!	!	!	!	!	!	!	!	!	!	!
.	.	[2.f^</	.	p	(2B-^/	(>2B-\	.	2.r	.	.	.	.	[2.b-/	[>2.b-\	.
.	.	.	.	.	4A-/)	4A-\)	.	.	.	.	.	.	.	.	.
*Xrep	*	*	*	*	*	*	*	*	*	*	*	*	*	*	*
*	*	*	*	*	*	*	*	*v	*v	*	*	*	*	*	*
=81	=81	=81	=81	=81	=81	=81	=81	=81	=81	=81	=81	=81	=81	=81
*rep	*	*	*	*	*	*	*	*	*	*	*	*	*	*
1.AA-yTTT	.	1.f_	1.r	.	([<2.A-^/	[<2.A-\	.	1.r	.	1.r	.	4b-/]	4b-\]	.
.	.	.	.	.	.	.	.	.	.	.	.	4ccn/	4ccn\	.
.	.	.	.	.	.	.	.	.	.	.	.	4ddn/	4ddn\	.
.	.	.	.	.	4A-/]	4A-\]	.	.	.	.	.	2ee-/	2ee-\	.
.	.	.	.	.	4G-/	4G-\	.	.	.	.	.	.	.	.
!	!	!	!	!	!	!	!	!	!	!	!	!	!LO:TX:a:t=P:problem=czerwona kreska we wszystkich głosach	!
.	.	.	.	.	4F/	4F\	.	.	.	.	.	4ff/)	4ff\	.
*Xrep	*	*	*	*	*	*	*	*	*	*	*	*	*	*
!!LO:LB:g=original
=82	=82	=82	=82	=82	=82	=82	=82	=82	=82	=82	=82	=82	=82	=82
!	!	!	!LO:TX:a:t=P:problem=brak zakoń czenia ligatury	!	!LO:TX:a:t=P:problem=brak zakończenia łuku	!	!	!	!	!	!	!	!	!
1.AA-yTTT	.	(4f/	1.f]	.	4E-/)	4E-\	.	1.r	.	1.r	.	4gg-/	4gg-\	.
.	.	4g/	.	.	4r	4ryy	.	.	.	.	.	4r	4ryy	.
.	.	4a-/	.	.	(4BB-/	4BB-\	.	.	.	.	.	4b-/	4b-\	.
.	.	2b-X/	.	.	2G-^/	2G-\	.	.	.	.	.	([2.gg-/	[>2.gg-^\	.
.	.	4cc/)	.	.	4F/	4F\	.	.	.	.	.	.	.	.
=83	=83	=83	=83	=83	=83	=83	=83	=83	=83	=83	=83	=83	=83	=83
*rep	*	*	*	*	*	*	*	*	*	*	*	*	*	*
1.AA-yTTT	.	[2.dd-X/	[2.f\	.	4E-/	4E-\	<	1.r	.	1.r	.	4gg-/]	4gg-\]	.
.	.	.	.	.	4F/	4F\	.	.	.	.	.	4ff/	4ff\	.
.	.	.	.	.	4G-/	4G-\	[	.	.	.	.	4ee-/	4ee-\	.
.	.	2dd-/]	2f\]	.	2A-/	2A-\	>	.	.	.	.	4dd-/	4dd-\	.
.	.	.	.	.	.	.	.	.	.	.	.	4cc/	4cc\	.
.	.	4g/	4g\	.	4G-/)	4G-\	]	.	.	.	.	4b-/	4b-\	.
*Xrep	*	*	*	*	*	*	*	*	*	*	*	*	*	*
=84	=84	=84	=84	=84	=84	=84	=84	=84	=84	=84	=84	=84	=84	=84
*rep	*	*	*	*	*	*	*	*	*	*	*	*	*	*
1.AA-IyTTT	.	4a-/	4a-X\	.	(2G-^/	2G-\	.	1.r	.	1.r	.	4a-/)	4a-\	.
.	.	4r	4ryy	.	.	.	.	.	.	.	.	4r	4ryy	.
.	.	4r	4ryy	.	4F/	4F\	.	.	.	.	.	4dd-/	4r	.
.	.	2r	2.ryy	.	2D-/	2D-\	.	.	.	.	.	([<2.ff/	2.r	.
.	.	4r	.	.	4BB-/	4BB-\	.	.	.	.	.	.	.	.
*Xrep	*	*	*	*	*	*	*	*	*	*	*	*	*	*
*	*	*v	*v	*	*	*	*	*	*	*	*	*	*	*
=85	=85	=85	=85	=85	=85	=85	=85	=85	=85	=85	=85	=85	=85
*	*	*	*	*	*	*	*	*	*^	*	*	*	*
*rep	*	*	*	*	*	*	*	*	*	*	*	*	*	*
1.AA-yTTT	.	1.r	.	4AA-/)	4AA-\	.	1.r	.	2.r	1.re	.	4ff/]	1.r	.
.	.	.	.	4r	4ryy	.	.	.	.	.	.	4gg-/	.	.
.	.	.	.	4D-/	4D-\	.	.	.	.	.	.	4ff/	.	.
.	.	.	.	(4.C^/	4.C\	.	.	.	4r	.	.	2ee-/	.	.
.	.	.	.	.	.	.	.	.	4r	.	.	.	.	.
.	.	.	.	8BB-/	8BB-\	.	.	.	.	.	.	.	.	.
!	!	!	!	!	!	!	!	!	!	!	!LO:DY:t=ppp	!	!	!
.	.	.	pp	4AA-/)	4AA-\	.	.	.	(4a-/	.	ppp	4aa-/)	.	.
*Xrep	*	*clefF4	*	*	*	*	*	*	*	*	*	*	*	*
=86	=86	=86	=86	=86	=86	=86	=86	=86	=86	=86	=86	=86	=86	=86
4AA-y/	.	[1.E-X [>1.CC	.	[1.D-	[>1.AA-	.	2.r	.	[2.dd-/)	1.r	.	[2.aa-/	2.r	.
4r	.	.	.	.	.	.	.	.	.	.	.	.	.	.
4r	.	.	.	.	.	.	.	.	.	.	.	.	.	.
2.r	.	.	.	.	.	.	4r	.	4dd-/]	.	.	4aa-/]	4r	.
.	.	.	.	.	.	.	4r	pp	4r	.	.	4r	4r	.
.	.	.	.	.	.	.	(<4cc 4c/	.	(4a-/	.	.	(4dd-/	(>4dd-\	.
=87	=87	=87	=87	=87	=87	=87	=87	=87	=87	=87	=87	=87	=87	=87
*	*	*rep	*	*rep	*rep	*	*	*	*	*	*	*	*	*
1.r	.	1.E-X] 1.CC]	.	1.D-]	1.AA-]	.	1.dd- 1.a-)	.	[1.dd-)	1.r	.	[2.aa-/)	[>2.aa-\)	.
.	.	.	.	.	.	.	.	.	.	.	.	4aa-/]	4aa-\]	.
.	.	.	.	.	.	.	.	.	.	.	.	4r	4ryy	.
.	.	.	.	.	.	.	.	.	.	.	.	4aa-/	4aa-\	.
*	*	*Xrep	*	*Xrep	*Xrep	*	*	*	*	*	*	*	*	*
*	*	*	*	*v	*v	*	*	*	*	*	*	*	*	*
!!LO:PB:g=original
=88	=88	=88	=88	=88	=88	=88	=88	=88	=88	=88	=88	=88	=88
*	*	*clefG2	*	*	*	*	*	*	*	*	*	*	*
*	*	*^	*	*	*	*^	*	*	*	*	*	*	*
1.r	.	[2.en/	1.r	.	1.c 1.An	ppp	(1.a	4a\	.	2.cc#X/_	1.r	ppp	([2.aan/	[>2.aan\	ppp
.	.	.	.	.	.	.	.	4r	.	.	.	.	.	.	.
.	.	.	.	.	.	.	.	4r	.	.	.	.	.	.	.
.	.	4e/]	.	.	.	.	.	2.r	.	2cc#/]	.	.	4aa/]	4aa\]	.
.	.	4re	.	.	.	.	.	.	.	.	.	.	4gg#X/	4gg#\	.
.	.	4re	.	.	.	.	.	.	.	4a-/	.	.	4ff#X/	4ff#\	.
*	*	*v	*v	*	*	*	*v	*v	*	*	*	*	*	*	*
=89	=89	=89	=89	=89	=89	=89	=89	=89	=89	=89	=89	=89	=89
1.r	.	1.r	.	1.Bn 1.G#X	.	1.eX	.	[2.g#X/	1.r	.	[2.een/	[>2.een\	.
.	.	.	.	.	.	.	.	2g#/]	.	.	4ee/]	4ee\]	.
.	.	.	.	.	.	.	.	.	.	.	4dd#X/	4dd#\	.
.	.	.	.	.	.	.	.	4en/	.	.	4cc#X/	4cc#\	.
*	*	*	*	*	*	*	*	*v	*v	*	*	*	*
=90	=90	=90	=90	=90	=90	=90	=90	=90	=90	=90	=90	=90
1.r	.	1.r	.	1.Bn 1.F#X	.	2.BX/	.	[2.f#X/	.	[2.bn/	[>2.bn\	.
.	.	.	.	.	.	2.f#X/)	.	4f#/]	.	4b/]	4b\]	.
.	.	.	.	.	.	.	.	4r	.	4a#X/	4a#\	.
.	.	.	.	.	.	.	.	4r	.	4an/	4an\	.
=91	=91	=91	=91	=91	=91	=91	=91	=91	=91	=91	=91	=91
*	*	*	*	*	*	*^	*	*	*	*	*	*
1.r	.	1.r	.	1.c 1.E-X	.	[2.g-X/	2.rd	.	1.r	.	4a-X/)	4a-X\	.
.	.	.	.	.	.	.	.	.	.	.	4ryy	4r	.
.	.	.	.	.	.	.	.	.	.	.	4aa-X/	4r	.
!	!	!	!	!	!	!	!	!	!	!	!LO:ACC:color=red	!	!
.	.	.	.	.	.	.	.	.	.	.	8qccc-/	.	.
.	.	.	.	.	.	2g-/]	4rd	.	.	.	2bb-/	4r	.
.	.	.	.	.	.	.	4rd	.	.	.	.	4r	.
.	.	.	.	.	.	(4a-/	4a-\	.	.	.	(4aa-/	4a-\	.
!!LO:LB:g=original
=92	=92	=92	=92	=92	=92	=92	=92	=92	=92	=92	=92	=92	=92
*	*	*	*	*^	*	*	*	*	*	*	*	*	*
!	!	!	!	!LO:TX:a:t=P:problem=ołówkiem zamazane 2.F i dopisane 2dd	!	!	!	!	!	!	!LO:DY:a	!LO:TX:a:t=P:problem=brak zakończenia łuku	!	!
1.ryy	.	[1.cc [>1.e-X	.	[2.F/	2.D-\	.	[2.ff [2.dd-\)	2.ryy	.	[2.a- [>2.f/	ppp	[2.ddd-/)	[2.ff\	.
!	!	!	!	!LO:TX:a:t=P:problem=ołówkiem zamazane 2F i dopisane 2dd	!	!	!	!	!	!	!	!	!	!
.	.	.	.	2F/]	2.C\	.	2ff] 2dd-\]	4ryy	.	4a-] 4f/]	.	2ddd-/]	2ff\]	.
.	.	.	.	.	.	.	.	4ryy	.	4r	.	.	.	.
!	!	!	!	!	!	!	!	!	!	!	!LO:DY:a	!	!	!
.	.	.	.	4F/	.	.	(4a-/	4a-\	.	4r	ppp	(4ff/	4a-\	.
=93	=93	=93	=93	=93	=93	=93	=93	=93	=93	=93	=93	=93	=93	=93
*	*	*rep	*	*	*	*	*	*	*	*	*	*	*	*
1.ryy	.	1.cc_ 1.e-_>	.	[2.d-/	2.BBn\	.	[2.ff [2.dd-\)	2.ryy	.	[2.a- [>2.f/	.	[2.ddd-/)	[2.ff\	.
.	.	.	.	2d-/]	2.C\	.	2ff] 2dd-\]	4ryy	.	4a-] 4f/]	.	2ddd-/]	2ff\]	.
.	.	.	.	.	.	.	.	4ryy	.	4r	.	.	.	.
.	.	.	.	4F/	.	.	(4a-/	4a-\	.	4r	.	(4ff/	4a-\	.
*	*	*Xrep	*	*	*	*	*	*	*	*	*	*	*	*
=94	=94	=94	=94	=94	=94	=94	=94	=94	=94	=94	=94	=94	=94	=94
!	!	!	!	!	!	!	!	!	!	!	!LO:DY:a	!	!	!
1.ryy	.	2.cc] 2.e-/]	.	[2.d-/	[2.D-\	.	[2.ff [2.dd-\)	2.ryy	.	[2.a- [>2.f/	ppp	[2.ddd-/)	[2.ff\	.
.	.	4cc 4e-y/	.	2d-/]	2D-\]	.	2ff] 2dd-\]	4ryy	.	4a-] 4f/]	.	2ddd-/]	2ff\]	.
.	.	4r	.	.	.	.	.	4ryy	.	4r	.	.	.	.
.	.	4cc 4e-/	.	4F/	4AA-\	.	(4a-/	4a-\	.	4r	.	(4ff/	4a-\	.
*	*	*	*	*	*	*	*v	*v	*	*	*	*	*	*
=95	=95	=95	=95	=95	=95	=95	=95	=95	=95	=95	=95	=95	=95
1.ryy	.	2cc 2e-X/	.	2d-/	[2.D-\	.	2ff 2dd-\	.	4r	.	2ddd-/	2ff\	.
.	.	.	.	.	.	.	.	.	4r	.	.	.	.
!	!	!	!	!	!	!	!	!	!	!LO:DY:a	!	!	!
.	.	4cc 4e-/	.	4d-/	.	.	4ee- 4cc\|	.	(>4a- 4f'/	ppp	4ddd-'/	4ff\	.
.	.	2cc 2e-/	.	2d-/	2D-\]	.	2ff 2dd-\	.	2a- 2f/	.	2ddd-/	2ff\	.
.	.	4cc 4e-/	.	4d-/	4AA-\	.	4ee- 4cc\|	.	4a- 4f'/	.	4ddd-'/)	4ff\	.
*	*	*	*	*v	*v	*	*	*	*	*	*	*	*
=96	=96	=96	=96	=96	=96	=96	=96	=96	=96	=96	=96	=96
1.ryy	.	1.cc 1.e-X	.	1.DD-	.	1.ff 1.dd-;)	.	1.a- 1.f;)	.	1.ff;	1.a-	.
*	*	*	*	*	*	*	*	*	*	*v	*v	*
==	==	==	==	==	==	==	==	==	==	==	==
*-	*-	*-	*-	*-	*-	*-	*-	*-	*-	*-	*-
!!!system-decoration: (s1,s2,s3,s4,s5,s6)
!!!RDF**kern: > = above
!!!RDF**kern: < = below
!!!RDF**kern: | = vertical stroke
!!!RDF**dynam: pp = "pp."
!!!RDF**dynam: ppp = "ppp."
!!!ENC: Marta Lawrence
!!!END: 2021-08-22
!!!ENC: Marcin Jachim
!!!END: 2021-08-09
